packages/foundations/assets/icons/functional/images/technology/qr_code_20.svg

<svg width="20" height="20" viewBox="0 0 20 20" fill="none" xmlns="http://www.w3.org/2000/svg">
<g clip-path="url(#clip0_187_621)">
<path fill-rule="evenodd" clip-rule="evenodd" d="M7.16745 11C8.17826 10.999 8.99862 11.8178 9 12.8292V16.1702C8.99862 17.1817 8.17836 18.0007 7.16745 18H3.8288C2.81921 17.999 2.00103 17.1804 2 16.1702V12.8292C2.00138 11.8193 2.81945 11.001 3.8288 11H7.16745ZM7 13H4V16H7V13ZM16.1704 2C17.1804 2.00103 17.999 2.8195 18 3.82945V7.1693C17.9993 8.17959 17.1808 8.99862 16.1704 9H12.8296C11.8196 8.99897 11.001 8.1805 11 7.17055V3.82945C11.001 2.8195 11.8196 2.00103 12.8296 2H16.1704ZM16 4H13V7H16V4ZM7.17038 2C8.18018 2.00103 8.99862 2.81927 9 3.82916V7.17085C8.99828 8.18059 8.18004 8.99862 7.17038 9H3.82962C2.81996 8.99862 2.00172 8.18059 2 7.17085V3.82916C2.00138 2.81927 2.81982 2.00103 3.82962 2H7.17038ZM7 4H4V7H7V4ZM12 15C11.4477 15 11 14.5523 11 14V12C11 11.4477 11.4477 11 12 11H14C14.5523 11 15 11.4477 15 12V14H17C17.5523 14 18 14.4477 18 15V17C18 17.5523 17.5523 18 17 18H15C14.4477 18 14 17.5523 14 17V15H12Z" fill="#1A1C1F"/>
</g>
<defs>
<clipPath id="clip0_187_621">
<rect width="20" height="20" fill="white"/>
</clipPath>
</defs>
</svg>

<svg xmlns="http://www.w3.org/2000/svg" width="20" height="20" fill="none"><g clip-path="url(#a)"><path fill="#1A1C1F" fill-rule="evenodd" d="M7.167 11A1.83 1.83 0 0 1 9 12.83v3.34A1.83 1.83 0 0 1 7.167 18H3.83A1.83 1.83 0 0 1 2 16.17v-3.34A1.83 1.83 0 0 1 3.829 11zM7 13H4v3h3zm9.17-11c1.01.001 1.829.82 1.83 1.83v3.34c0 1.01-.82 1.829-1.83 1.83h-3.34A1.83 1.83 0 0 1 11 7.17V3.83A1.83 1.83 0 0 1 12.83 2zM16 4h-3v3h3zM7.17 2C8.18 2.001 9 2.82 9 3.83v3.34A1.83 1.83 0 0 1 7.17 9H3.83A1.83 1.83 0 0 1 2 7.17V3.83A1.83 1.83 0 0 1 3.83 2zM7 4H4v3h3zm5 11a1 1 0 0 1-1-1v-2a1 1 0 0 1 1-1h2a1 1 0 0 1 1 1v2h2a1 1 0 0 1 1 1v2a1 1 0 0 1-1 1h-2a1 1 0 0 1-1-1v-2z" clip-rule="evenodd"/></g><defs><clipPath id="a"><path fill="#fff" d="M0 0h20v20H0z"/></clipPath></defs></svg>
